X: 30707
T: Orgies Nocturnes
R: slide
M: 12/8
K: Adorian
e2 A AAe f2 g a3|gfe f2 g e3 e3|e2 A AAe f2 g a3|gfe f2 g e3 e3||
e2 A AAe f2 g a3|e2 b g2 e g2 f d2 e|c2 A =F2 c B2 A G2 A|cBA B2 c A3 A3||

